/* XPM */
static char *collect[] = {
/* columns rows colors chars-per-pixel */
"64 64 181 2 ",
"   c #1D754E",
".  c #1D7651",
"X  c #1D7D54",
"o  c #1C7F59",
"O  c #23734D",
"+  c #21794F",
"@  c #227D54",
"#  c #227E58",
"$  c #1F8355",
"%  c #1E875F",
"&  c #1F8A5D",
"*  c #228357",
"=  c #23835B",
"-  c #25895D",
";  c #22905D",
":  c #2A955F",
">  c #1F8761",
",  c #1E8A63",
"<  c #1F9364",
"1  c #248562",
"2  c #238C64",
"3  c #2A8D66",
"4  c #258E6A",
"5  c #2B8D6A",
"6  c #249264",
"7  c #2A9163",
"8  c #25946B",
"9  c #2A946C",
"0  c #259A6D",
"q  c #2A9A6C",
"w  c #30986E",
"e  c #3D8E70",
"r  c #259673",
"t  c #2B9671",
"y  c #269D74",
"u  c #299A73",
"i  c #249B79",
"p  c #2B9D7B",
"a  c #349675",
"s  c #319A74",
"d  c #389C77",
"f  c #3E947A",
"g  c #339C7C",
"h  c #3C9B7C",
"j  c #29A26C",
"k  c #23A176",
"l  c #2BA177",
"z  c #28A974",
"x  c #27A47C",
"c  c #2CA27C",
"v  c #2AAA7D",
"b  c #33A177",
"n  c #31A27C",
"m  c #3CA27E",
"M  c #31AB7A",
"N  c #41A27F",
"B  c #26A480",
"V  c #2AA482",
"C  c #2CAA85",
"Z  c #2BAC8B",
"A  c #32A483",
"S  c #3BA483",
"D  c #33AC85",
"F  c #3CA986",
"G  c #33A789",
"H  c #3CA78B",
"J  c #33AC8A",
"K  c #3AAD8C",
"L  c #2DB283",
"P  c #2DB38D",
"I  c #2DB88F",
"U  c #33B385",
"Y  c #35B28D",
"T  c #3DB18C",
"R  c #39AD90",
"E  c #2CB492",
"W  c #2EBA95",
"Q  c #2CB798",
"!  c #2DBA9A",
"~  c #33B593",
"^  c #3AB593",
"/  c #34BA95",
"(  c #38BA97",
")  c #36B79A",
"_  c #33BB9B",
"`  c #3BBC9C",
"'  c #2BBFA3",
"]  c #3FB7A1",
"[  c #3CBDA1",
"{  c #4BA384",
"}  c #47AA8F",
"|  c #4BAB8A",
" . c #52AC8C",
".. c #43B393",
"X. c #4AB794",
"o. c #44B997",
"O. c #44B59A",
"+. c #4DB69A",
"@. c #43BB9C",
"#. c #4CBA9B",
"$. c #51B795",
"%. c #46BCA2",
"&. c #49BDA1",
"*. c #53BFA2",
"=. c #2FC19D",
"-. c #33C19E",
";. c #3BC19E",
":. c #2FC3A3",
">. c #2FC4A8",
",. c #34C3A2",
"<. c #3CC3A3",
"1. c #37C8A6",
"2. c #32C6A9",
"3. c #3EC7A9",
"4. c #37CCAC",
"5. c #3CCAAC",
"6. c #37CEB0",
"7. c #3DCEB1",
"8. c #37D2B6",
"9. c #3AD1B5",
"0. c #37D3B9",
"q. c #3BD4BB",
"w. c #45C3A5",
"e. c #4CC2A4",
"r. c #43C5A9",
"t. c #4DC5AA",
"y. c #43CBAD",
"u. c #4BC9AD",
"i. c #53C3A5",
"p. c #5AC6A5",
"a. c #54C4AA",
"s. c #53CAAC",
"d. c #45CDB2",
"f. c #4ACCB2",
"g. c #4DCFBA",
"h. c #55CBB2",
"j. c #5BCDB3",
"k. c #5ECFB9",
"l. c #46D0B4",
"z. c #4CD1B7",
"x. c #44D4BA",
"c. c #4ED3BB",
"v. c #53D1B4",
"b. c #59D1B7",
"n. c #54D3BB",
"m. c #5BD2BA",
"M. c #64CDB4",
"N. c #6ECFB7",
"B. c #6BCFBA",
"V. c #62D2BB",
"C. c #6AD2BB",
"Z. c #72D3BC",
"A. c #42D6C0",
"S. c #51D6C2",
"D. c #5BD6C3",
"F. c #5FD9C2",
"G. c #5BDBC9",
"H. c #65D6C2",
"J. c #6BD5C1",
"K. c #64D9C5",
"L. c #6CDAC5",
"P. c #6BDCCB",
"I. c #72D5C2",
"U. c #7FD7C3",
"Y. c #74D9C5",
"T. c #7AD9C6",
"R. c #73DCCC",
"E. c #7BDAC8",
"W. c #7FDED0",
"Q. c #79E0CD",
"!. c #80D7C6",
"~. c #81D8C4",
"^. c #83DDCD",
"/. c #8ADBC8",
"(. c #84DED0",
"). c #8CDED1",
"_. c #83E0D2",
"`. c #8BE0D3",
"'. c #93E1D1",
"]. c #94E3D8",
"[. c None",
/* pixels */
"[.[.[.[.[.[.[.[.[.[.[.[.[.[.[.[.[.[.[.[.[.[.[.[.[.[.[.[.[.[.[.[.[.[.[.[.[.[.[.[.[.[.[.[.[.[.[.[.[.[.[.[.[.[.[.[.[.[.[.[.[.[.[.[.",
"[.[.[.[.[.[.[.[.[.[.[.[.[.[.[.[.[.[.[.[.[.[.[.[.[.[.[.[.[.[.[.[.[.[.[.[.[.[.[.[.[.[.[.[.[.[.[.[.[.[.[.[.[.[.[.[.[.[.[.[.[.[.[.[.",
"[.[.[.[.[.[.[.[.[.[.[.[.[.[.[.[.[.[.[.[.[.[.[.[.[.[.[.[.[.[.[.[.[.[.[.[.[.[.[.[.[.[.[.[.[.[.[.[.[.[.[.[.[.[.[.[.[.[.[.[.[.[.[.[.",
"[.[.[.[.[.[.[.[.[.[.[.[.[.[.[.[.[.[.[.[.[.[.[.[.[.[.[.[.[.[.[.[.[.[.[.[.[.[.[.[.[.[.[.[.[.[.[.[.[.[.[.[.[.[.[.[.[.[.[.[.[.[.[.[.",
"[.[.[.[.[.[.[.[.[.[.[.[.[.[.[.[.[.[.[.[.[.[.[.[.[.[.[.[.[.[.[.[.[.[.[.[.[.[.[.[.[.[.[.[.[.[.[.[.[.[.[.[.[.[.[.[.[.[.[.[.[.[.[.[.",
"[.[.[.[.[.[.[.[.[.[.[.[.[.[.[.[.[.[.[.[.[.[.[.[.[.[.[.[.[.[.[.[.[.[.[.[.[.[.[.[.[.[.[.[.[.[.[.[.[.[.[.[.[.[.[.[.[.[.[.[.[.[.[.[.",
"[.[.[.[.[.[.[.[.[.[.[.[.[.[.[.[.[.[.[.[.[.[.[.[.[.[.[.[.[.[.[.[.[.[.[.[.[.[.[.[.[.[.[.[.[.[.[.[.[.[.[.[.[.[.[.[.[.[.[.[.[.[.[.[.",
"[.[.[.[.[.[.[.[.[.[.[.[.[.[.[.[.[.[.[.[.[.[.[.[.[.[.[.[.[.[.[.[.[.[.[.[.[.[.[.[.[.[.[.[.[.[.[.[.[.[.[.[.[.[.[.[.[.[.[.[.[.[.[.[.",
"[.[.[.[.[.[.[.[.[.[.[.[.[.[.[.[.[.[.[.[.[.[.[.[.[.[.[.[.[.[.[.[.[.[.[.[.[.[.[.[.[.[.[.[.[.[.[.[.[.[.[.[.[.[.[.[.[.[.[.[.[.[.[.[.",
"[.[.[.[.[.[.[.[.[.[.[.[.[.[.[.[.[.[.[.[.[.[.[.[.[.[.[.[.[.[.[.[.[.[.F.`.[.[.[.[.[.[.[.[.[.[.[.[.[.[.[.[.[.[.[.[.[.[.[.[.[.[.[.[.",
"[.[.[.[.[.[.[.[.[.[.[.[.[.[.[.[.[.[.[.[.[.[.[.[.[.[.[.[.[.[.[.[.[.z.R.].!.[.[.[.[.[.[.[.[.[.[.[.[.[.[.[.[.[.[.[.[.[.[.[.[.[.[.[.",
"[.[.[.[.[.[.[.[.[.[.[.[.[.[.[.[.[.[.[.[.[.[.[.[.[.[.[.[.[.[.[.[.[.c.^.(.M.[.[.[.[.[.[.[.[.[.[.[.[.[.[.[.[.[.[.[.[.[.[.[.[.[.[.[.",
"[.[.[.[.[.[.[.[.[.[.[.[.[.[.[.[.[.[.[.[.[.[.[.[.[.[.[.[.[.[.[.[.9.K.`.~.a.[.[.[.[.[.[.[.[.[.[.[.[.[.[.[.[.[.[.[.[.[.[.[.[.[.[.[.",
"[.[.[.[.[.[.[.[.[.[.[.[.[.[.[.[.[.[.[.[.[.[.[.[.[.[.[.[.[.[.[.8.x.R./.C.w.[.[.[.[.[.[.[.[.[.[.[.[.[.[.[.[.[.[.[.[.[.[.[.[.[.[.[.",
"[.[.[.[.[.[.[.[.[.[.[.[.[.[.[.[.[.[.[.[.[.[.[.[.[.[.[.[.[.[.[.q.G._.E.s.W P [.[.[.[.[.[.[.[.[.[.[.[.[.[.[.[.[.[.[.[.[.[.[.[.[.[.",
"[.[.[.[.[.[.[.[.[.[.[.[.[.[.[.[.[.[.[.[.[.[.[.[.[.[.[.[.[.[.8.A.R.).N.` I L 0 [.[.[.[.[.[.[.[.[.[.[.[.[.[.[.[.[.[.[.[.[.[.[.[.[.",
"[.[.[.[.[.[.[.[.[.[.[.[.[.[.[.[.[.[.[.[.[.[.[.[.[.[.[.[.[.[.8.G._.^.s._ I v q [.[.[.[.[.[.[.[.[.[.[.[.[.[.[.[.[.[.[.[.[.[.[.[.[.",
"[.[.[.[.[.[.[.[.[.[.[.[.[.[.[.[.[.[.[.[.[.[.[.[.[.[.[.[.[.6.x.R.`.J.y.=.I j q [.[.[.[.[.[.[.[.[.[.[.[.[.[.[.[.[.[.[.[.[.[.[.[.[.",
"[.[.[.[.[.[.[.[.[.[.[.[.[.[.[.[.[.[.[.[.[.[.[.[.[.[.[.[.[.8.x.R.E.j.-.W C i q : [.[.[.[.[.[.[.[.[.[.[.[.[.[.[.[.[.[.[.[.[.[.[.[.",
"[.[.[.[.[.[.[.[.[.[.[.[.[.[.[.[.[.[.[.[.[.[.[.[.[.[.[.[.q.q.S.L.C.r.W I v i 7 - [.[.[.[.[.[.[.[.[.[.[.[.[.[.[.[.[.[.[.[.[.[.[.[.",
"[.[.[.[.[.[.[.[.[.[.[.[.[.[.[.[.[.[.[.[.[.[.[.[.[.[.[.[.0.q.P.T.m.` P D M 8 2 - [.[.[.[.[.[.[.[.[.[.[.[.[.[.[.[.[.[.[.[.[.[.[.[.",
"[.[.[.[.[.[.[.[.[.[.[.[.[.[.[.[.[.[.[.[.[.[.[.[.[.[.[.8.x.F._.^.k.,._ U D 9 2 6 [.[.[.[.[.[.[.[.[.[.[.[.[.[.[.[.[.[.[.[.[.[.[.[.",
"[.[.[.[.[.[.[.[.[.[.[.[.[.[.[.[.[.[.[.[.[.[.[.[.[.[.8.6.c.W.'.T.u.! _ Y M M q 8 [.[.[.[.[.[.[.[.[.[.[.[.[.[.[.[.[.[.[.[.[.[.[.[.",
"[.[.[.[.[.[.[.[.[.[.[.[.[.[.[.[.[.[.[.[.[.[.[.[.[.6.4.d.K.)./.B.[ / ~ ^ } T z j [.[.[.[.[.[.[.[.[.[.[.[.[.[.[.[.[.[.[.[.[.[.[.[.",
"[.[.[.[.[.[.[.[.[.[.[.[.[.[.[.[.[.[.[.[.[.[.[.[.9.1.6.l.L.^.I.u.,.,.<.w.i.o.M z [.[.[.[.[.[.[.[.[.[.[.[.[.[.[.[.[.[.[.[.[.[.[.[.",
"[.[.[.[.[.[.[.[.[.[.[.[.[.[.[.[.[.[.[.[.[.[.[.m.n.l.6.l.V.L.n.5.r.u.h.j.i...z j [.[.[.[.[.[.[.[.[.[.[.[.[.[.[.[.[.[.[.[.[.[.[.[.",
"[.[.[.[.[.[.[.[.[.[.[.[.[.[.[.[.[.[.[.[.[.[.b.m.K.n.l.v.m.m.c.g.b.m.b.+.} S 0 ; * [.[.[.[.[.[.[.[.[.[.[.[.[.[.[.[.[.[.[.[.[.[.[.",
"[.[.[.[.[.[.[.[.[.[.[.[.[.[.[.[.[.[.[.[.[.[.<.g.G.n.c.V.K.n.c.b.j.e.o.S h a y ; $ [.[.[.[.[.[.[.[.[.[.[.[.[.[.[.[.[.[.[.[.[.[.[.",
"[.[.[.[.[.[.[.[.[.[.[.[.[.[.[.[.[.[.[.[.[.F <.1.7.9.c.K.K.z.f.t.` J B g h h i 6 $ [.[.[.[.[.[.[.[.[.[.[.[.[.[.[.[.[.[.[.[.[.[.[.",
"[.[.[.[.[.[.[.[.[.[.[.[.[.[.[.[.[.[.[.[.[.e K ! -.y.v.K.D.5.' _ Z V B p a t 8 < 6 [.[.[.[.[.[.[.[.[.[.[.[.[.[.[.[.[.[.[.[.[.[.[.",
"[.[.[.[.[.[.[.[.[.[.[.[.[.[.[.[.[.[.[.[.[.f H A / 5.n.L.m.,._ ! E Z Z C a 5 4 < $ [.[.[.[.[.[.[.[.[.[.[.[.[.[.[.[.[.[.[.[.[.[.[.",
"[.[.[.[.[.[.[.[.[.[.[.[.[.[.[.[.[.[.[.[.[.h <.~ / 6.b.Y.V.<.! ! ! E Z G h 9 8 X * [.[.[.[.[.[.[.[.[.[.[.[.[.[.[.[.[.[.[.[.[.[.[.",
"[.[.[.[.[.[.[.[.[.[.[.[.[.[.[.[.[.[.[.[.[.{ ` E ' <.j.Z.M.[ Q E Z V B V p 5 1 o   [.[.[.[.[.[.[.[.[.[.[.[.[.[.[.[.[.[.[.[.[.[.[.",
"[.[.[.[.[.[.[.[.[.[.[.[.[.[.[.[.[.[.[.[.[.m ^ Q [ <.h.Z.M.%.' _ R V i r r 4 1 o * [.[.[.[.[.[.[.[.[.[.[.[.[.[.[.[.[.[.[.[.[.[.[.",
"[.[.[.[.[.[.[.[.[.[.[.[.[.[.[.[.[.[.[.[.[.J J E :.5.h.I.J.l.>.[ ` H r r i r > o @ [.[.[.[.[.[.[.[.[.[.[.[.[.[.[.[.[.[.[.[.[.[.[.",
"[.[.[.[.[.[.[.[.[.[.[.[.[.[.[.[.[.[.[.[.[.J C Z _ y.H.(.E.c.>.%.O.R r 4 r 1 o X [.[.[.[.[.[.[.[.[.[.[.[.[.[.[.[.[.[.[.[.[.[.[.[.",
"[.[.[.[.[.[.[.[.[.[.[.[.[.[.[.[.[.[.[.[.[.) ^ Y W d.m.^.I.f.2.[ O.K n p 4 4 o . [.[.[.[.[.[.[.[.[.[.[.[.[.[.[.[.[.[.[.[.[.[.[.[.",
"[.[.[.[.[.[.[.[.[.[.[.[.[.[.[.[.[.[.[.[.[.h.t._ =.y.m.J.j.y.>.[ O...J V 4 4 .   [.[.[.[.[.[.[.[.[.[.[.[.[.[.[.[.[.[.[.[.[.[.[.[.",
"[.[.[.[.[.[.[.[.[.[.[.[.[.[.[.[.[.[.[.[.[.m.v.1.,.u.V.B.p.<.:.[ #.O.S g 4 > . X [.[.[.[.[.[.[.[.[.[.[.[.[.[.[.[.[.[.[.[.[.[.[.[.",
"[.[.[.[.[.[.[.[.[.[.[.[.[.[.[.[.[.[.[.[.[.h.u.-.-.r.V.B.p.w.-.<.&.&.S p 5 4 . . [.[.[.[.[.[.[.[.[.[.[.[.[.[.[.[.[.[.[.[.[.[.[.[.",
"[.[.[.[.[.[.[.[.[.[.[.[.[.[.[.[.[.[.[.[.V.a.@.~ ! y.V.Z.M.u.' <.a.*...A l y 1 # [.[.[.[.[.[.[.[.[.[.[.[.[.[.[.[.[.[.[.[.[.[.[.[.",
"[.[.[.[.[.[.[.[.[.[.[.[.[.[.[.[.[.[.[.[.j.#.` Z _ y.m.T.C.u.,.3.f.h.&.H V x , @ [.[.[.[.[.[.[.[.[.[.[.[.[.[.[.[.[.[.[.[.[.[.[.[.",
"[.[.[.[.[.[.[.[.[.[.[.[.[.[.[.[.[.[.[.[.h.s.( ~ ,.u.V.R.H.d.,.,.3.u.%.K G v 2 # [.[.[.[.[.[.[.[.[.[.[.[.[.[.[.[.[.[.[.[.[.[.[.[.",
"[.[.[.[.[.[.[.[.[.[.[.[.[.[.[.[.[.[.[.[.m.e./ E ~ i.C.Q.K.7.>.! ) [ %.O.J V 8 # O [.[.[.[.[.[.[.[.[.[.[.[.[.[.[.[.[.[.[.[.[.[.[.",
"[.[.[.[.[.[.[.[.[.[.[.[.[.[.[.[.[.[.[.[.V.t.~ P K #.C.L.n.5.' Q Z R %.&.H c 8 - @ [.[.[.[.[.[.[.[.[.[.[.[.[.[.[.[.[.[.[.[.[.[.[.",
"[.[.[.[.[.[.[.[.[.[.[.[.[.[.[.[.[.[.[.[.m.r.P L Y i.M.J.t.' Q Z G G @.*...c 8 - @ [.[.[.[.[.[.[.[.[.[.[.[.[.[.[.[.[.[.[.[.[.[.[.",
"[.[.[.[.[.[.[.[.[.[.[.[.[.[.[.[.[.[.[.d.d.r.~ L T i.j.k.e.~ Z c V A H +.#.U q - @ [.[.[.[.[.[.[.[.[.[.[.[.[.[.[.[.[.[.[.[.[.[.[.",
"[.[.[.[.[.[.[.[.[.[.[.[.[.[.[.[.[.[.[.( [ _ Y C Y X.p.k.r.~ Z Z R A S { $.T v 8 = [.[.[.[.[.[.[.[.[.[.[.[.[.[.[.[.[.[.[.[.[.[.[.",
"[.[.[.[.[.[.[.[.[.[.[.[.[.[.[.[.[.[.[.J J A p c J o.i.s.t.( E P G n d N  .X.U y - [.[.[.[.[.[.[.[.[.[.[.[.[.[.[.[.[.[.[.[.[.[.[.",
"[.[.[.[.[.[.[.[.[.[.[.[.[.[.[.[.[.[.J C V V B V ~ r.u.u.w./ I E G b u d { | M 0 [.[.[.[.[.[.[.[.[.[.[.[.[.[.[.[.[.[.[.[.[.[.[.[.",
"[.[.[.[.[.[.[.[.[.[.[.[.[.[.[.[.[.[.V A p V p V ) <.<.@.^ ^ C I J t 9 w h h M 7 [.[.[.[.[.[.[.[.[.[.[.[.[.[.[.[.[.[.[.[.[.[.[.[.",
"[.[.[.[.[.[.[.[.[.[.[.[.[.[.[.[.[.[.[.l u r V ^ ^ ^ C ^ R ( P C p s 9 3 s s n [.[.[.[.[.[.[.[.[.[.[.[.[.[.[.[.[.[.[.[.[.[.[.[.[.",
"[.[.[.[.[.[.[.[.[.[.[.[.[.[.[.[.[.[.[.t 2 2 y Y F c p u G ` J p 9 t 0 3 2 8 9 [.[.[.[.[.[.[.[.[.[.[.[.[.[.[.[.[.[.[.[.[.[.[.[.[.",
"[.[.[.[.[.[.[.[.[.[.[.[.[.[.[.[.[.[.[.5 1 2 u C p u y 9 F ` D p 0 0 6 > % * # [.[.[.[.[.[.[.[.[.[.[.[.[.[.[.[.[.[.[.[.[.[.[.[.[.",
"[.[.[.[.[.[.[.[.[.[.[.[.[.[.[.[.[.[.[.[.1 = 5 x u 3 t u V ^ ( C 8 6 2 2 @ + @ [.[.[.[.[.[.[.[.[.[.[.[.[.[.[.[.[.[.[.[.[.[.[.[.[.",
"[.[.[.[.[.[.[.[.[.[.[.[.[.[.[.[.[.[.[.[.[.[.[.9 4 - 0 i 9 Z / U 8 - = @ O [.[.[.[.[.[.[.[.[.[.[.[.[.[.[.[.[.[.[.[.[.[.[.[.[.[.[.",
"[.[.[.[.[.[.[.[.[.[.[.[.[.[.[.[.[.[.[.[.[.[.[.= # @ * 2 8 v U b 7 * * O [.[.[.[.[.[.[.[.[.[.[.[.[.[.[.[.[.[.[.[.[.[.[.[.[.[.[.[.",
"[.[.[.[.[.[.[.[.[.[.[.[.[.[.[.[.[.[.[.[.[.[.[.[.[.= @ * * 7 [.[.[.[.[.[.[.[.[.[.[.[.[.[.[.[.[.[.[.[.[.[.[.[.[.[.[.[.[.[.[.[.[.[.",
"[.[.[.[.[.[.[.[.[.[.[.[.[.[.[.[.[.[.[.[.[.[.[.[.[.[.[.[.[.[.[.[.[.[.[.[.[.[.[.[.[.[.[.[.[.[.[.[.[.[.[.[.[.[.[.[.[.[.[.[.[.[.[.[.",
"[.[.[.[.[.[.[.[.[.[.[.[.[.[.[.[.[.[.[.[.[.[.[.[.[.[.[.[.[.[.[.[.[.[.[.[.[.[.[.[.[.[.[.[.[.[.[.[.[.[.[.[.[.[.[.[.[.[.[.[.[.[.[.[.",
"[.[.[.[.[.[.[.[.[.[.[.[.[.[.[.[.[.[.[.[.[.[.[.[.[.[.[.[.[.[.[.[.[.[.[.[.[.[.[.[.[.[.[.[.[.[.[.[.[.[.[.[.[.[.[.[.[.[.[.[.[.[.[.[.",
"[.[.[.[.[.[.[.[.[.[.[.[.[.[.[.[.[.[.[.[.[.[.[.[.[.[.[.[.[.[.[.[.[.[.[.[.[.[.[.[.[.[.[.[.[.[.[.[.[.[.[.[.[.[.[.[.[.[.[.[.[.[.[.[.",
"[.[.[.[.[.[.[.[.[.[.[.[.[.[.[.[.[.[.[.[.[.[.[.[.[.[.[.[.[.[.[.[.[.[.[.[.[.[.[.[.[.[.[.[.[.[.[.[.[.[.[.[.[.[.[.[.[.[.[.[.[.[.[.[.",
"[.[.[.[.[.[.[.[.[.[.[.[.[.[.[.[.[.[.[.[.[.[.[.[.[.[.[.[.[.[.[.[.[.[.[.[.[.[.[.[.[.[.[.[.[.[.[.[.[.[.[.[.[.[.[.[.[.[.[.[.[.[.[.[."
};
