/* XPM */
static char *exit_64[] = {
/* columns rows colors chars-per-pixel */
"64 64 238 2 ",
"   c #000002",
".  c #03060A",
"X  c #05090E",
"o  c #08090D",
"O  c #080608",
"+  c #070B12",
"@  c #090D14",
"#  c #0A0F19",
"$  c #050D19",
"%  c #0C1017",
"&  c #0C121C",
"*  c #11161E",
"=  c #0E1622",
"-  c #0E192A",
";  c #101722",
":  c #111A25",
">  c #131C2B",
",  c #181D28",
"<  c #131E31",
"1  c #0D1D30",
"2  c #17212E",
"3  c #152233",
"4  c #192535",
"5  c #16253B",
"6  c #1A263A",
"7  c #1C2B3C",
"8  c #192837",
"9  c #1F303B",
"0  c #0F2135",
"q  c #22303C",
"w  c #364A3F",
"e  c #1D2D43",
"r  c #1D2F48",
"t  c #142E42",
"y  c #1C3346",
"u  c #1C344C",
"i  c #1D3A4E",
"p  c #173547",
"a  c #1E3651",
"s  c #1E3A52",
"d  c #212E41",
"f  c #212F48",
"g  c #233245",
"h  c #23344C",
"j  c #223A4D",
"k  c #27394C",
"l  c #243652",
"z  c #243B53",
"x  c #293B55",
"c  c #253D59",
"v  c #2B3D5A",
"b  c #313D56",
"n  c #2C3F60",
"m  c #1F4154",
"M  c #354B45",
"N  c #354C4B",
"B  c #364948",
"V  c #3B524B",
"C  c #3D5047",
"Z  c #254254",
"A  c #2A4355",
"S  c #25425B",
"D  c #2B425B",
"F  c #2C4A5B",
"G  c #2A4958",
"H  c #30425D",
"J  c #324A5D",
"K  c #334A54",
"L  c #3A5457",
"P  c #2B4347",
"I  c #2D4562",
"U  c #2D4B63",
"Y  c #2A4966",
"T  c #324564",
"R  c #334B65",
"E  c #344C6A",
"W  c #3A4C6C",
"Q  c #354768",
"!  c #2F5065",
"~  c #345363",
"^  c #34536C",
"/  c #3A536D",
"(  c #3C5C6B",
")  c #3A5866",
"_  c #3B4D73",
"`  c #354E71",
"'  c #365572",
"]  c #3C5473",
"[  c #3C5A75",
"{  c #3C5A7B",
"}  c #3A5776",
"|  c #3D6272",
" . c #3E617C",
".. c #3C616D",
"X. c #44594B",
"o. c #445C57",
"O. c #53664F",
"+. c #4A645A",
"@. c #556A53",
"#. c #546C57",
"$. c #5B745D",
"%. c #4D624F",
"&. c #64795A",
"*. c #425D65",
"=. c #425C72",
"-. c #42557C",
";. c #435B7C",
":. c #475A78",
">. c #45646C",
",. c #4A6768",
"<. c #516A66",
"1. c #597667",
"2. c #436473",
"3. c #43627D",
"4. c #496A78",
"5. c #536C79",
"6. c #4D737B",
"7. c #537373",
"8. c #54747A",
"9. c #597A78",
"0. c #4F7068",
"q. c #627C66",
"w. c #637F74",
"e. c #6A825E",
"r. c #73895E",
"t. c #7B915C",
"y. c #5D827E",
"u. c #698368",
"i. c #738A62",
"p. c #778C65",
"a. c #7C946B",
"s. c #63827D",
"d. c #6A8879",
"f. c #799576",
"g. c #708C7E",
"h. c #9DAC4C",
"j. c #9AAA52",
"k. c #97A859",
"l. c #A6B44B",
"z. c #A8B656",
"x. c #B4BF55",
"c. c #A0AE4F",
"v. c #869C66",
"b. c #869D74",
"n. c #8BA26B",
"m. c #8DA265",
"M. c #96AA67",
"N. c #8AA276",
"B. c #99AD72",
"V. c #95AB75",
"C. c #9EB171",
"Z. c #A6B567",
"A. c #A4B776",
"S. c #B1BF6B",
"D. c #BDC859",
"F. c #B7C476",
"G. c #C2CC5B",
"H. c #C6D167",
"J. c #D4DC73",
"K. c #C9D270",
"L. c #D8E079",
"P. c #455C82",
"I. c #495C83",
"U. c #4B5E89",
"Y. c #455682",
"T. c #446383",
"R. c #4A6384",
"E. c #466984",
"W. c #4A6B85",
"Q. c #456389",
"!. c #4C648B",
"~. c #4B6C8B",
"^. c #466B8B",
"/. c #526D8D",
"(. c #516B84",
"). c #4D7582",
"_. c #4D738D",
"`. c #547B83",
"'. c #5B7D83",
"]. c #52728D",
"[. c #577786",
"{. c #4B6C92",
"}. c #4E6893",
"|. c #546C94",
" X c #546D99",
".X c #566997",
"XX c #4E7493",
"oX c #547395",
"OX c #5A7395",
"+X c #547A96",
"@X c #54749C",
"#X c #5A749C",
"$X c #5A7A9C",
"%X c #557B9A",
"&X c #567AA3",
"*X c #5B7BA4",
"=X c #5576A1",
"-X c #617DA6",
";X c #5B8386",
":X c #5D8389",
">X c #5C8888",
",X c #5A8193",
"<X c #628683",
"1X c #62878A",
"2X c #628B8C",
"3X c #688B85",
"4X c #6A918C",
"5X c #7B9985",
"6X c #6B9795",
"7X c #769799",
"8X c #7EA19B",
"9X c #5E80A9",
"0X c #79A6A1",
"qX c #87A587",
"wX c #99B38A",
"eX c #94B297",
"rX c #8BA894",
"tX c #A2BD97",
"yX c #A5BA89",
"uX c #92B0A1",
"iX c #A0BDA4",
"pX c #829F86",
"aX c #B7CB9B",
"sX c #B4C68C",
"dX c #B2CBA1",
"fX c #CBD484",
"gX c #D5DC9A",
"hX c #CBD68F",
"jX c #DEE588",
"kX c #E3E998",
"lX c #D6DEA4",
"zX c #CBD8A2",
"xX c #DBE2A3",
"cX c #E3E8A8",
"vX c #E8ECB3",
"bX c #EFF2B8",
"nX c #F2F5C7",
"mX c #F9FAD9",
/* pixels */
"                                                . . . . . . . . . . X X o + + X .                                               ",
"                                                  .   .   . . . .     . . . X .       .                                         ",
"                                                                                    X X X .                                     ",
"                                            . X @ % % & & * ; : : : : : : * * % o X X X .                                       ",
"                                        . X & > 8 d k k H J ~ ) } [ [ / ) T H g 8 * .     . O O                                 ",
"                                  . X o % : 5 h A T Q / =.:.E.^.^.{._.~.W.T.P.=.T k 3 * % o X O O                               ",
"                                . @ : 2 7 g x R ^ ^ ' ' ] } } { { { { ;.{ U.|.oX|.!.;.R k 2 o O . .                             ",
"                            . X % : 7 j x D T Y E R R I Y E U R R Y T U E ' Q.{. XoXoX~.=.J 4 % o O                             ",
"                        . X & : 3 7 j Z A A x l s a a p i m z S c z z j u z c I E { E.oX#X X:.b &         .                     ",
"                      . X & > 8 y i Z Z z z z i s s s i i i z Z l j u y y y p j Z F ^ T.OX-X#X:.q & X . . .                     ",
"                      X ; 2 7 g i p t t y j Z Y Y ' ^ ) U G Z Z j j j j j Z Z Z Z x h c / R.#XOX:.b < $ + .                     ",
"                  . X & , 7 q y i p s s S U ^  . .E.E.4...) ! G A z i j Z Z A A G z u u x E ;./.OXR.D 3 $                       ",
"                . + & : 8 7 7 7 p m ^  .^.^.XXXXXX_.).).6.3...^ ) Y s p u u j Z A F U S j u a R /.OX/.J *   . o .               ",
"                . # : 2 8 7 e u m ^ ^.XX9X,X,X_._._.).;X`.`.).E.E.| R G Z Z z j A F ~ U A u t j =./.#X5.q @ + O .               ",
"              . + & > 3 3 7 z ^ E.XXXX,X^.E.| ..^ | E.;X;X1X2X>X2X1X'.8.>.) F Z Z Z F ! ^ U Z j z E /.OX=.q &   . .             ",
"              . % : 3 7 y x ' E.XX,XXX^.........| | ;X;X>X3X2X2X2X4X4X4X;X7.2.) G Z Z F ^ ' R Z y x :.OX/./ 2 . X .             ",
"            . + = > 5 i E P.@X$XXXE.' S Z F >.9.>X>X4X>Xy.y.u.7.9.y.g.4X4X>X2X`.>.K g j ! ' ' U i z / !.-X(.l = X   .           ",
"            X # = 5 i E !.@X$XoXT.^ G Z S ~ 7.>X>X>X>Xy.u.1.1.1.1.u.d.d.s.2X6X4Xy.,.K Z S ! | ' S c D { #X#XW 7 #   . . .       ",
"        . . @ & 1 r ' {.&X&XE.) Z j A ^ E._.;Xy.7.0.+.#.$.$.e.e.r.e.e.$.$.0.<X4X6X2X7.F m S ( | ^ Y s U ].$X3.H &   . .         ",
"        . X + : t Y ^.9X*X{.^ A y j ) 4.,X,X9.0.+.%.%.@.e.e.t.t.t.t.r.u.&.$.1.s.6X0X2X| m i ^ 4. .Y i m 3.OXOX/ :   o o         ",
"        . X . : x P.&X*X{.} S j m ! y.>X>X6.+.V %.@.&.r.v.v.v.v.m.n.n.f.b.a.&.q.4X6X0Xy.Z p F 2.E.' i p { oXoX=.< . + o O       ",
"      . X + + 3 ' oX9X%X{ S i i G ..;X>X7.+.C C @.r.v.m.m.M.k.k.k.M.M.B.B.N.q.q.y.6X0X2XF p F ..E. .m s E W.#X3.e $ + o         ",
"        X $ = u Q.9X&X!.Y u p Z ..y.>X6.L M X.e.f.V.C.C.j.j.j.j.j.j.k.k.M.B.n.f.d.g.0X6X>.F G ^ E. .! Z R ;.+XE.h = # X         ",
"        . # 5 Y oX9X X{ c p i F | ;X6...N N $.f.yXsXsXF.F.z.z.l.z.l.c.h.k.M.A.N.a.d.rX7X7.) A U E.E.( U D [ %XXXD 3 & . .       ",
"    . .   % h -.@X*XQ.Y s i ~ 4.;X6...V o.<.f.wXaXzXzXgXgXhXK.H.D.D.D.l.h.k.B.V.n.N.rX7X[.' Z G E.^.} E I ' =X=X' 7 #   . .     ",
"    . . . > R ~.=X X` I i G 2.`.;X7.N N <.g.rXtXaXzXlXcXvXvXcXkXjXL.G.D.h.h.M.B.V.N.uX7X'.( j Z E._. .! s ^ =X&X} y #   . .     ",
"      . # e ;.#X=XQ.Y s s R ).'.7.>.P N 1.5XeXyXyXF.fXgXbXnXnXnXbXkXL.D.l.h.z.V.wXeXuX7X9.*.g j  .^. .^ c E @X&X{ l #   . X     ",
"      . 1 x |.-X X{ s u S / OX'.>.L P V w.pXwXyXS.S.S.K.kXnXmXmXmXnXkXJ.D.l.Z.C.eXeXuX4X7.L k x  .^.{ ! c E XX=X{ l & . X X .   ",
".     X 8 Q #X-X}.` a a I { ].].~ P M o.d.pXwXA.C.Z.z.x.K.kXbXnXmXmXnXcXL.K.F.A.dXiX8X3Xo.B k D  .E.' U v ` =X=X] h = + + X     ",
". .   # d / #X*XU.Y a a E P.oXW.G m N +.d.5XN.V.C.k.j.c.G.J.kXvXnXnXnXbXkXhXK.sXdXiX5X1.o.B A R 3.E.^ G Y { =X XE r > # + X     ",
". .   % k -.#X@X{ Y a s / ~.OXW.m i N <.d.5Xf.b.B.C.j.c.x.G.K.L.jXkXcXvXvXxXzXzXdXrXd.+.C B G / ^.E.Y S Y T.=X XQ e > = $ .     ",
".     % k ;. X|.} S a c { ].+XE.m p K 0.d.5Xd.f.N.C.k.j.z.x.D.G.G.H.fXhXgXlXzXaXsX5X1.V B K ) 2.W.3.S m ^ E.=X!.n 5 > & @ X     ",
"      & x P..X}.' D z T E.+X$XT.s y J <.g.g.q.u.b.V.M.k.j.c.c.z.z.z.Z.S.F.sXaXeXqXu.+.N N L 4.W.R./ u u ' {.@XQ.s 0 - ; # . .   ",
"      * x I.}.U.E c z Y E.+X$XE.z e H 4.'.3Xq.&.f.N.N.M.k.k.k.k.j.j.j.c.z.C.wXqXu.#.L P N *.5./.;.D e h  .XXXX{ p 1 - = # .     ",
".     & H I.}.P.T a u S 3.+X+X4.j e x *.g.g.1.1.u.f.N.V.M.M.M.k.k.j.k.k.k.M.a.u.#.X.M B L *.(.(.E l r v ^.=X!.` r 1 - = $       ",
". .   ; b I.!.P.I a u S  ._.+XE.A y l L 9.g.q.1.$.&.a.n.n.n.M.m.k.m.v.v.v.t.&.@.X.B N L >.4.(.;.c a c ] =X=XY.v t 1 - & X O     ",
". .   & b -.!.;.n a a n { ^.%XW.D y i A 0.s.d.1.o.X.&.i.a.v.m.n.v.v.v.t.r.&.%.V M N L ,.5.5.:.Q u u ' {.&X XQ r 7 < > & + .     ",
".     & l -.U.Y.n a a Y ' E.oXW.J j p Z *.7.g.d.+.X.o.#.&.e.r.i.t.r.&.$.@.%.V V N L <.8.'.5./ x p c Q.&X=XP.c 5 5 < ; # X       ",
"      % h ] U.Y.n l a c ^  .].W.L j i m G ,.1X4X<X<.X.X.X.X.O.O.O.O.X.X.C M M N o.4.'.'.(.=.l r a ` =X&X^.' l 5 < < & # O       ",
"      @ f E P.Y.Q c a a U [ _._.^ A j i j ~ [.6X4Xw.,.V B C X.L o.X.V V w N V L 5.[.1X[.:.b f h ` Q.&X@X} S u e < - # .         ",
"      @ 7 T P.P.Q x h l I { ].~.) A j i i F | `.2X2X<X7.<.+.+.+.o.o.*.o.+.+.0.7.'.'.(.=.n l x T Q.@XXX{ n r f e < , + .         ",
"      o 3 x -.;.Q l r l v ' /./.=.J j i i Z U ..).>X1X<Xw.9.7.7.7.7.7.7.9.9.'.[.9.4.=.R v x Q :.{.{.P.E l r h d < ; +           ",
"      . : g W -.U l d d x Q P.!.;.Q k g j l j G ^ | ).;X<X<X2X2X1X4X1X1X<X'.8.4.>.) G H Q -.P.Q.Q.{ Q c l l l e > # o .         ",
"      . @ 4 T _ Q x d 7 f n } U.R.=.H k k j u u m ! ..4.8.'.;X>X1X'.'.'.[.5.2.*.R T I R ] I.Q.P._ T l h l l f 6 ; + . .         ",
"      . . ; x W Q x q 6 e l E -.!.!.W H l h h i s Z G U ^ [ [ 2.:.=.=.) J F A D J ^ [ ;.:.-._ E v l u u x k d , % .             ",
"    . .   @ d b R b d 7 e g H =./..X:.W A i z j s s i s S Y G I H D D A Z j x D R [ ;.;.-.Q n v l r l l x g 8 ; + .             ",
"          + 2 k H H k 7 7 e x Q U..XoX3.U z z z c s s s i s c c z z z A D T R R ^ / / Q v v l l x v v v z 7 : $ X .             ",
"          O ; 4 x v k g 7 7 h b ] !.oX].{ R Y S c c z z i s l l j z z A H R R ^ Q T D x x c v n n n n v g 3 % X .               ",
"          X @ : d k k k 7 4 q h v / ~.oX|.T./ T A z s z l l l l l x v v v D T b b l f l n n _ _ _ Q n l 6 = $ .                 ",
"        . . X & 2 g h k 7 8 7 7 g D [ W.oX|.R./ R D c x l l l x l l l l v x x x l l l v _ Y.Y.Y._ n l 6 > # . .                 ",
"          . . + & 2 7 q 9 9 7 7 7 e z E R.|.OX/.3.] E H l h l l g r f l l l x x b n Q -.U.U.U.Y.n l < ; # X                     ",
"              X $ & 2 4 9 9 q 8 8 3 5 h E I./.OX/.!.:.] Q n n n v x v n n Q R Q n -.-.Y..XU.Y.Q l < * @ X .                     ",
"                . + & : 8 9 7 8 3 > 3 5 g H -./.OX#X X|.!.P.U.Y.-.-.Y.:.I.I.!.U.Y.-.-.-.-.Q n f < & + . .                       ",
"                . . . % 2 4 8 4 , > < < 3 g Q -.R.|. X=X=X X.X.X.X.X.X.X.X.X.X!.Y.-.-.n v h 7 > # O .                           ",
"                    . X & > 2 2 > > > > , 6 h n E ] P.!. X#X X#X.X.X#X.X|.!.U.Y.Q n h f 3 > & $ o . .                           ",
"                    . X $ % * ; : ; > : > > < e h v I E -.I.Y.Y.U.U.U.I.-.W T b f d < = % $ + X O .                             ",
"                    . . X X @ # # & & * ; : , > < < 6 d f f u l c c n c f 7 , ; * * % $ # + X .                                 ",
"                      . . . o o X @ % * & * & ; ; ; ; : - - - 1 < < < < - # O O X X X X X . . .                                 ",
"                          O O O . o o @ @ @ # & & & & # # # & = - = = $ # + o o + X .                                           ",
"                                . . X X o o @ @ # # # @ @ @ % # $ + X . . . X o X X                                             ",
"                                . . X . . . . . O o X X + + + X X X .   . . .                                                   ",
"                                  . . . .       . . . . X X . . .       .                                                       ",
"                                    .       . . . .                                                                             ",
"                                            . . . .                                                                             "
};
