/* XPM */
static char *walls[] = {
/* columns rows colors chars-per-pixel */
"64 64 3 1 ",
"  c #12632B",
". c #1C9340",
"X c None",
/* pixels */
"XXXXXXXXXXXXXXXXXXXXXXXXXXXXXXXXXXXXXXXXXXXXXXXXXXXXXXXXXXXXXXXX",
"XXXXXXXXXXXXXXXXXXXXXXXXXXXXXXXXXXXXXXXXXXXXXXXXXXXXXXXXXXXXXXXX",
"XXXXXXXXXXXXXXXXXXXXXXXXXXXXXXXXXXXXXXXXXXXXXXXXXXXXXXXXXXXXXXXX",
"XXXXXXXXXXXXXXXXXXXXXXXXXXXXXXXXXXXXXXXXXXXXXXXXXXXXXXXXXXXXXXXX",
"XXXXXXXXXXXXXXXXXXXXXXXXXXXXXXXXXXXXXXXXXXXXXXXXXXXXXXXXXXXXXXXX",
"XXXXXXXXXXXXXXXXXXXXXXXXXXXXXXXXXXXXXXXXXXXXXXXXXXXXXXXXXXXXXXXX",
"XXXXXXXXXXXXXXXXXXXXXXXXXXXXXXXXXXXXXXXXXXXXXXXXXXXXXXXXXXXXXXXX",
"XXXXXXXXXXXXXXXXXXXXXXXXXXXXXXXXXXXXXXXXXXXXXXXXXXXXXXXXXXXXXXXX",
"XXXXXXXXXXXXXXXXXXXXXXXXXXXXXXXXXXXXXXXXXXXXXXXXXXXXXXXXXXXXXXXX",
"XXXXXXXXXXXXXXXXXXXXXXXXXXXXXXXXXXXXXXXXXXXXXXXXXXXXXXXXXXXXXXXX",
"XXXXXXXXXXXXXXXXXXXXXXXXXXXXXXXXX..XXXXXXX..XXXXXXXXXXXXXXXXXXXX",
"XXXXXXXXXXXXXXXXXXXXXXXXXXXXXX.X...XXXXXXX..XXXXXXXXXXXXXXXXXXXX",
"XXXXXXXXXXXXXXXXXXXXXXXXXXXX......XXXXXXXX....XXXXXXXXXXXXXXXXXX",
"XXXXXXXXXXXXXXXXXXXXXXXX..X.......X.XXX..X....XXXXXX..XXXXXXXXXX",
"XXXXXXXXXXXXXXXXXXXX..XX..XX.........XX..X...X.XXXX...XXXXXXXXXX",
"XXXXXXXXXXXXXXXXXXXX...X..XXX.......XXX.....X...XXX..XX.XXXXXXXX",
"XXXXXXXXXXXXX..X..XXX..X..X... ....XXX. ....X..XXX.......XXXXXXX",
"XXXXXXXXXXXXX.....XXX.........  ....... ................XXXXXXXX",
"XXXXXXXXXXX.XX....XXX. ... ...... ...   . .... ... ...XXXXXXXXXX",
"XXXXXXXXXX........ ...    ....... ....... .... .   ..XXXXXXXXXXX",
"XXXXXXXXXXX....... ... ...... ... . ...   ..   ......XXXXXXXXXXX",
"XXXXXXXXXXXXXX... ...  ... .. ...  .  ............ ....X....XXXX",
"XXXXXXXXXXXXXX... ... .... ..   ....   .. .......  ....... ..XXX",
"XXXXXXXXX........  ....   .......       .    ..   .......  XXXXX",
"XXXXXXXX..... ......... ... ...          ...  ....... .   ..XXXX",
"XXXXXXXXXX.. .... .......   .     .            ..  .. ...X...XXX",
"XXXXXXXXX.  ..... ..    . ..                    ..    .. XX..XXX",
"XXXXXXXX.. ..    ..  .                  .       ..        XXXXXX",
"XXXXXXX......... .. ..          .       .                 XXXXXX",
"XXXXXXXXX ....   .. ..   .      .   .   .....            ....XXX",
"XXXXXXXXX        .  ...  .    ...   .    ..            .......XX",
"XXXXXXXXX  ..            ..         .          .   .  ... .....X",
"XXXXXXXXXX....                      ...    .   ..  . ..   .. .XX",
"XXXXXXXXXXX......                           .......   .....  .XX",
"XXXXXXXXXX........          .                           ......XX",
"XXXXXXX...  ....      .  ...      .                     X...XXXX",
"XXXXX..... .. ...  ....          ..                     XXXXXXXX",
"XXXX... . ...  ..                .    .                ......XXX",
"XXXX..  .  ..               .....     ....    .   .   ..  ....XX",
"XXX...  ....                                  .  ..   ... ....XX",
"XXX..X......                                ...  .    ........XX",
"XXXXXX..  ..    .   ..     .                         ... .....XX",
"XXXXX... ...   ..    ..   ..         .                   ....XXX",
"XXXXX..X .. ....          .    ..    .    .             ..X..XXX",
"XXXXXXX                         .    ..   .              XXXXXXX",
"XXXXXXXX                      ...         .         .    X..XXXX",
"XXXXXXX    .                              .        ..    ....XXX",
"XXXXX...   .      .                        ..   ....     . ...XX",
"XXX......  ....   ..      .                 ..          ... XXXX",
"XX......    ..          ..                               ...XXXX",
"X...X..                ..       XX   X          XXXXX  XXX...XXX",
"XXXXX..XXXX                    XXXX  XXXXX      XXXXXXXXXXX..XXX",
"XXXXXXXXXX....          XX  XXXXXXX  XXXXX    XXXXXXXXXXXXXXXXXX",
"XXXXXXXXX......   XXXXXXXXXXXXXXXXXXXXXXX   XXXXXXXXXXXXXXXXXXXX",
"XXXXXXXXX.. ...  XXXXXXXXXXXXXXXXXXXXXXXXXXXXXXXXXXXXXXXXXXXXXXX",
"XXXXXXXXXXXX..XXXXXXXXXXXXXXXXXXXXXXXXXXXXXXXXXXXXXXXXXXXXXXXXXX",
"XXXXXXXXXXX...XXXXXXXXXXXXXXXXXXXXXXXXXXXXXXXXXXXXXXXXXXXXXXXXXX",
"XXXXXXXXXXX..XXXXXXXXXXXXXXXXXXXXXXXXXXXXXXXXXXXXXXXXXXXXXXXXXXX",
"XXXXXXXXXXXXXXXXXXXXXXXXXXXXXXXXXXXXXXXXXXXXXXXXXXXXXXXXXXXXXXXX",
"XXXXXXXXXXXXXXXXXXXXXXXXXXXXXXXXXXXXXXXXXXXXXXXXXXXXXXXXXXXXXXXX",
"XXXXXXXXXXXXXXXXXXXXXXXXXXXXXXXXXXXXXXXXXXXXXXXXXXXXXXXXXXXXXXXX",
"XXXXXXXXXXXXXXXXXXXXXXXXXXXXXXXXXXXXXXXXXXXXXXXXXXXXXXXXXXXXXXXX",
"XXXXXXXXXXXXXXXXXXXXXXXXXXXXXXXXXXXXXXXXXXXXXXXXXXXXXXXXXXXXXXXX",
"XXXXXXXXXXXXXXXXXXXXXXXXXXXXXXXXXXXXXXXXXXXXXXXXXXXXXXXXXXXXXXXX"
};
